images/design/rh-icon-piggybank.svg

<svg width="83" height="69" viewBox="0 0 83 69" xmlns="http://www.w3.org/2000/svg"><title>rh-icon-piggybank</title><defs><linearGradient x1="20.421%" y1="16.448%" x2="80.374%" y2="88.754%" id="a"><stop stop-color="#E6E6E6" offset="0%"/><stop stop-color="#F7F7F7" offset="50%"/><stop stop-color="#C4C4C4" offset="100%"/></linearGradient></defs><g fill="none" fill-rule="evenodd"><path d="M80.023 30.742l-5.605-1.34c-.426-.1-1.412-.4-1.676-1.373-.98-3.63-3.262-6.837-5.95-9.698.462-1.115.593-2.76 1.745-4.497 1.205-1.816 3.234-4.145.828-5.136-.568-.235-1.22-.338-1.92-.338-3.105 0-7.145 2.036-8.81 3.69-3.185-1.767-6.753-3.1-10.57-3.943C47.3 3.98 43.68.845 39.336.845c-4.27 0-7.844 3.027-8.695 7.047C15.184 10.913 3.688 22.24 3.688 35.76c0 .512.016 1.023.053 1.526l-.125.104c-.923.804-1.906 1.89-2.52 3.39a9.144 9.144 0 0 0-.587 4.346c.266 2.963 2.38 5.44 4.324 6.045.65.235 1.218.324 1.687.324.927 0 1.468-.347 1.474-.6.058-.488-1-.92-1.803-1.925-.85-.943-1.292-2.458-.992-3.882.05-.26.127-.516.222-.758 1.37 3.175 3.517 5.95 6.26 8.286 1.17 5.244 3.382 8.273 3.382 8.273s1.228 8.013 3.858 8.013h7.944c1.572 0 3.053-1.277 3.302-2.852 0 0-1.282-2.817-1.403-4.686-.02-.333.06-.71.17-1.096 3.156.584 6.482.9 9.935.9 1.924 0 3.808-.1 5.652-.28 0 0 2.502 8.014 5.13 8.014h7.944a2.852 2.852 0 0 0 2.85-2.852s-1.732-2.818-2.146-4.687c-.38-1.708 1.236-4.534 1.236-4.534 5.16-2.506 9.264-6.047 11.77-10.467l4.72 1.124a3.266 3.266 0 0 0 3.936-2.42l2.483-10.392a3.266 3.266 0 0 0-2.42-3.933z" fill="url(#a)"/><path d="M61.143 27.313a3.056 3.056 0 0 0-3.053 3.052 3.056 3.056 0 0 0 3.053 3.052 3.056 3.056 0 0 0 3.053-3.052 3.057 3.057 0 0 0-3.053-3.052zm0 4.604a1.555 1.555 0 0 1-1.553-1.552c0-.855.697-1.552 1.553-1.552.855 0 1.553.696 1.553 1.552 0 .856-.698 1.552-1.553 1.552z" fill="#231F20"/><path d="M49.303 12.353c.38.165.555.606.39.986a.752.752 0 0 1-.985.39c-.4-.173-.81-.322-1.22-.463a18.94 18.94 0 0 0-1.454-.436c-.324-.082-.65-.15-.98-.218-.345-.07-.69-.138-1.036-.192-3.328-.518-6.67-.298-9.273.15a27.688 27.688 0 0 0-2.03.425c-.563.14-1.047.285-1.46.425-.542.185-.958.362-1.18.507a.75.75 0 0 1-.817-1.258c.278-.182.807-.408 1.5-.64a8.984 8.984 0 0 1-.295-2.064C16.225 12.964 5.69 23.39 5.69 35.76c0 .49.015.954.046 1.38a2.003 2.003 0 0 1-.718 1.687l-.066.054-.052.044c-.914.797-1.562 1.66-1.95 2.613a7.104 7.104 0 0 0-.452 3.368c.075.836.342 1.598.704 2.242-.14-.81-.13-1.653.04-2.47.06-.323.17-.7.317-1.075a2 2 0 0 1 1.827-1.27h.035a2 2 0 0 1 1.836 1.206c1.215 2.816 3.14 5.36 5.72 7.557.33.28.56.663.654 1.087 1.066 4.78 3.026 7.502 3.045 7.53.19.258.314.558.362.876.415 2.695 1.406 5.66 2.093 6.316h7.73c.447 0 .927-.327 1.173-.746-.435-1.065-1.166-3.06-1.27-4.663-.038-.696.12-1.345.242-1.773.037-.13.108-.235.167-.35-3.087-.77-6.038-1.84-8.767-3.226a.75.75 0 0 1 .68-1.338c3.11 1.58 6.53 2.742 10.115 3.487.03.004.06.002.09.008 3.11.575 6.332.867 9.573.867 1.798 0 3.634-.09 5.455-.27.02-.003.036-.002.054-.004 1.87-.234 3.71-.582 5.506-1.043a.75.75 0 0 1 .373 1.453c-1.285.33-2.596.582-3.92.8.03.064.072.118.094.187.943 3.01 2.52 6.097 3.36 6.61h7.806c.33 0 .615-.19.756-.465-.59-1.034-1.65-3.038-2.007-4.64-.52-2.345 1.12-5.376 1.453-5.96.2-.35.502-.63.863-.807 4.9-2.38 8.67-5.717 10.903-9.652a1.996 1.996 0 0 1 2.2-.96l4.722 1.125a1.26 1.26 0 0 0 1.528-.94l2.482-10.393a1.26 1.26 0 0 0-.935-1.525l-5.605-1.34c-1.615-.377-2.764-1.397-3.14-2.796-.77-2.85-2.563-5.745-5.48-8.85a2.003 2.003 0 0 1-.39-2.136c.103-.247.2-.598.31-1.003.278-1.01.66-2.392 1.614-3.83.15-.227.31-.458.474-.694.287-.415.762-1.097 1-1.574a3.6 3.6 0 0 0-.898-.1c-2.605 0-6.123 1.84-7.4 3.107a2.004 2.004 0 0 1-2.38.33c-2.923-1.624-6.118-2.83-9.472-3.62a9.018 9.018 0 0 1-.232 1.662c.45.155.9.32 1.34.51z"/><path d="M80.023 30.742l-5.605-1.34c-.426-.1-1.412-.4-1.676-1.373-.98-3.63-3.262-6.837-5.95-9.698.462-1.115.593-2.76 1.745-4.497 1.205-1.816 3.234-4.145.828-5.136-.568-.235-1.22-.338-1.92-.338-3.105 0-7.145 2.036-8.81 3.69-3.185-1.767-6.753-3.1-10.57-3.943.1.527.157 1.07.157 1.625 0 .15-.02.297-.03.446 3.355.79 6.55 1.997 9.474 3.62a1.998 1.998 0 0 0 2.38-.33c1.276-1.268 4.794-3.108 7.4-3.108.337 0 .642.034.897.1-.238.478-.713 1.16-1 1.575a52.23 52.23 0 0 0-.475.693c-.953 1.44-1.336 2.822-1.613 3.832-.11.406-.21.756-.312 1.003a2 2 0 0 0 .39 2.136c2.917 3.105 4.71 6 5.48 8.85.377 1.4 1.525 2.42 3.14 2.797l5.606 1.34a1.263 1.263 0 0 1 .934 1.525l-2.482 10.393a1.262 1.262 0 0 1-1.528.94l-4.72-1.125a1.996 1.996 0 0 0-2.2.96c-2.234 3.935-6.006 7.272-10.906 9.652-.36.176-.662.457-.863.807-.334.583-1.973 3.614-1.453 5.958.355 1.603 1.416 3.606 2.006 4.64a.848.848 0 0 1-.756.466h-7.805c-.842-.514-2.418-3.6-3.36-6.61-.022-.068-.065-.122-.095-.187a45.797 45.797 0 0 0 3.92-.8.75.75 0 0 0 .54-.913.756.756 0 0 0-.913-.54c-1.798.46-3.638.81-5.507 1.043-.018.002-.035 0-.053.003-1.82.18-3.657.27-5.455.27a52.8 52.8 0 0 1-9.572-.866c-.03-.006-.06-.004-.09-.008-3.587-.745-7.005-1.907-10.117-3.487a.75.75 0 1 0-.68 1.337c2.73 1.386 5.68 2.456 8.768 3.225-.06.115-.13.222-.167.35-.122.43-.28 1.078-.24 1.774.103 1.603.833 3.598 1.268 4.663-.246.418-.726.745-1.172.745h-7.73c-.688-.657-1.68-3.62-2.095-6.316a2.008 2.008 0 0 0-.362-.878c-.02-.027-1.98-2.748-3.045-7.53a2.003 2.003 0 0 0-.654-1.086c-2.58-2.197-4.504-4.74-5.72-7.557a2 2 0 0 0-1.835-1.208h-.034a2.002 2.002 0 0 0-1.828 1.27 6.12 6.12 0 0 0-.316 1.075 6.587 6.587 0 0 0-.04 2.47 5.65 5.65 0 0 1-.705-2.24 7.104 7.104 0 0 1 .452-3.37c.388-.953 1.035-1.815 1.95-2.612l.05-.043.067-.054a2 2 0 0 0 .718-1.687 19.14 19.14 0 0 1-.047-1.378c0-12.37 10.536-22.797 24.774-25.795-.002-.078-.016-.152-.016-.23 0-.632.07-1.248.194-1.842-15.457 3.02-26.953 14.348-26.953 27.868 0 .51.016 1.022.053 1.525-.04.033-.084.068-.126.104-.923.804-1.906 1.89-2.52 3.39a9.144 9.144 0 0 0-.587 4.346c.266 2.963 2.38 5.44 4.324 6.045.65.234 1.22.323 1.688.323.928 0 1.468-.347 1.474-.6.058-.488-1-.92-1.803-1.925-.852-.94-1.294-2.456-.994-3.88.05-.26.127-.516.222-.758 1.37 3.175 3.517 5.95 6.26 8.286 1.17 5.244 3.382 8.273 3.382 8.273s1.228 8.015 3.858 8.015h7.944c1.572 0 3.053-1.277 3.302-2.852 0 0-1.282-2.818-1.403-4.687-.018-.333.06-.71.17-1.096 3.157.584 6.483.9 9.936.9 1.924 0 3.808-.1 5.652-.28 0 0 2.502 8.014 5.13 8.014h7.944a2.852 2.852 0 0 0 2.85-2.852s-1.732-2.818-2.146-4.687c-.38-1.708 1.236-4.534 1.236-4.534 5.16-2.504 9.264-6.045 11.77-10.465l4.72 1.124a3.266 3.266 0 0 0 3.936-2.42l2.483-10.393a3.264 3.264 0 0 0-2.417-3.935z" fill="#000"/><path d="M39.336 3.21c2.842 0 5.254 1.85 6.11 4.408.335.052.673.1 1.005.158-.86-3.126-3.72-5.43-7.115-5.43-3.335 0-6.158 2.22-7.074 5.262.34-.052.68-.104 1.024-.148.9-2.475 3.27-4.25 6.052-4.25zM32.195 11.603c.298-.077.607-.153.938-.226a6.415 6.415 0 0 1-.24-1.724c0-.04.004-.078.005-.117-.317.046-.634.093-.95.146v.05c-.002.65.09 1.273.247 1.87zM45.586 11.19c.314.07.627.14.938.222.117-.5.182-1.02.19-1.552-.31-.06-.622-.115-.937-.17a6.453 6.453 0 0 1-.19 1.5z"/><path d="M33.905 9.396c-.338.04-.672.092-1.007.14 0 .04-.006.078-.006.118 0 .598.088 1.174.24 1.724.314-.07.64-.136.98-.2a5.405 5.405 0 0 1-.22-1.524c0-.087.008-.172.013-.258zM39.336 4.21a5.45 5.45 0 0 1 4.97 3.23c.384.048.76.12 1.14.178-.855-2.558-3.268-4.41-6.11-4.41-2.78 0-5.15 1.777-6.05 4.252.375-.05.754-.088 1.134-.127a5.442 5.442 0 0 1 4.916-3.124zM44.773 9.537c.002.04.006.077.006.117 0 .46-.063.907-.173 1.335.328.055.652.13.98.2a6.4 6.4 0 0 0 .19-1.5 36.194 36.194 0 0 0-1.004-.153z" fill="#000"/><path d="M34.418 7.333c-.38.04-.76.078-1.134.127a6.388 6.388 0 0 0-.387 2.077c.335-.05.67-.1 1.007-.14a5.408 5.408 0 0 1 .514-2.064zM44.773 9.537c.336.048.672.097 1.004.153l.002-.037c0-.712-.12-1.395-.335-2.036-.38-.06-.756-.13-1.14-.18a5.4 5.4 0 0 1 .468 2.1z" fill="#000"/><path d="M39.335 2.346c3.396 0 6.255 2.305 7.116 5.43.546.1 1.08.215 1.616.333C47.3 3.98 43.68.845 39.336.845c-4.27 0-7.845 3.027-8.695 7.047.537-.105 1.077-.2 1.622-.285.915-3.04 3.738-5.262 7.073-5.262zM46.523 11.412c-.31-.082-.623-.153-.938-.22-.326-.07-.65-.147-.98-.203-3.78-.646-7.586-.355-10.494.188a27.198 27.198 0 0 0-1.917.426 7.34 7.34 0 0 1-.25-1.87c0-.016.003-.033.003-.05-.5.085-.995.178-1.486.282.02.71.118 1.4.294 2.062-.692.233-1.22.46-1.5.64a.75.75 0 0 0 .817 1.26c.223-.146.64-.323 1.183-.508.412-.14.896-.285 1.458-.425a29.83 29.83 0 0 1 2.03-.426c2.604-.448 5.947-.668 9.275-.15.346.054.69.12 1.037.192a18.377 18.377 0 0 1 2.432.655c.412.142.82.29 1.22.463a.75.75 0 0 0 .987-.39.75.75 0 0 0-.39-.987c-.44-.19-.89-.355-1.342-.51a8.92 8.92 0 0 0 .232-1.662c-.488-.114-.98-.223-1.48-.32a7.103 7.103 0 0 1-.187 1.552z" fill="#000"/><path d="M30.462 9.965c.49-.104.987-.196 1.486-.282.005-.72.114-1.416.312-2.075-.545.084-1.085.18-1.62.285a8.866 8.866 0 0 0-.195 1.84c0 .08.015.155.017.232zM46.723 9.734c0 .042-.006.083-.008.125.498.096.99.205 1.48.32.01-.15.028-.295.028-.446 0-.556-.057-1.098-.156-1.626a41.947 41.947 0 0 0-1.615-.332c.17.625.27 1.28.27 1.958z" fill="#000"/></g></svg>

<?xml version="1.0" encoding="UTF-8" standalone="no"?>
<svg width="83px" height="69px" viewBox="0 0 83 69" version="1.1" xmlns="http://www.w3.org/2000/svg" xmlns:xlink="http://www.w3.org/1999/xlink" xmlns:sketch="http://www.bohemiancoding.com/sketch/ns">
    <!-- Generator: Sketch 3.3.2 (12043) - http://www.bohemiancoding.com/sketch -->
    <title>rh-icon-piggybank</title>
    <desc>Created with Sketch.</desc>
    <defs>
        <linearGradient x1="20.4211265%" y1="16.4476836%" x2="80.3742744%" y2="88.7539856%" id="linearGradient-1">
            <stop stop-color="#E6E6E6" offset="0%"></stop>
            <stop stop-color="#F7F7F7" offset="50%"></stop>
            <stop stop-color="#C4C4C4" offset="100%"></stop>
        </linearGradient>
    </defs>
    <g id="Page-1" stroke="none" stroke-width="1" fill="none" fill-rule="evenodd" sketch:type="MSPage">
        <g id="rh-icon-piggybank" sketch:type="MSLayerGroup">
            <g id="Group" sketch:type="MSShapeGroup">
                <path d="M80.023,30.742 L74.418,29.402 C73.992,29.302 73.006,29.003 72.742,28.029 C71.763,24.399 69.48,21.193 66.791,18.332 C67.254,17.217 67.385,15.572 68.537,13.835 C69.742,12.019 71.771,9.69 69.365,8.699 C68.797,8.465 68.144,8.362 67.445,8.362 C64.34,8.362 60.3,10.398 58.636,12.051 C55.45,10.285 51.882,8.951 48.066,8.109 C47.3,3.982 43.679,0.846 39.335,0.846 C35.064,0.846 31.491,3.873 30.64,7.893 C15.184,10.912 3.688,22.241 3.688,35.761 C3.688,36.272 3.704,36.783 3.741,37.286 C3.701,37.319 3.657,37.354 3.615,37.39 C2.692,38.194 1.709,39.28 1.096,40.781 C0.55,42.187 0.345,43.656 0.508,45.126 C0.774,48.089 2.888,50.566 4.832,51.171 C5.481,51.405 6.05,51.494 6.519,51.494 C7.447,51.494 7.988,51.147 7.994,50.895 C8.052,50.406 6.995,49.975 6.191,48.969 C5.34,48.027 4.898,46.512 5.198,45.088 C5.247,44.827 5.325,44.572 5.42,44.33 C6.79,47.505 8.937,50.28 11.679,52.616 C12.849,57.86 15.062,60.889 15.062,60.889 C15.062,60.889 16.29,68.903 18.92,68.903 L26.864,68.903 C28.436,68.903 29.917,67.626 30.166,66.051 C30.166,66.051 28.884,63.233 28.763,61.364 C28.744,61.031 28.822,60.655 28.932,60.268 C32.089,60.852 35.415,61.168 38.868,61.168 C40.792,61.168 42.676,61.069 44.52,60.888 C44.52,60.888 47.022,68.902 49.651,68.902 L57.594,68.902 C59.166,68.902 60.444,67.625 60.444,66.05 C60.444,66.05 58.712,63.232 58.298,61.363 C57.919,59.655 59.534,56.829 59.534,56.829 C64.694,54.324 68.798,50.783 71.304,46.363 L76.025,47.487 C76.281,47.548 76.537,47.578 76.787,47.578 C78.266,47.578 79.603,46.568 79.961,45.067 L82.443,34.675 C82.863,32.929 81.781,31.162 80.023,30.742 L80.023,30.742 Z" id="Shape" fill="url(#linearGradient-1)"></path>
                <g id="Shape">
                    <path d="M61.143,27.313 C59.459,27.313 58.09,28.682 58.09,30.365 C58.09,32.048 59.459,33.417 61.143,33.417 C62.827,33.417 64.196,32.048 64.196,30.365 C64.195,28.683 62.826,27.313 61.143,27.313 L61.143,27.313 Z M61.143,31.917 C60.288,31.917 59.59,31.221 59.59,30.365 C59.59,29.51 60.287,28.813 61.143,28.813 C61.998,28.813 62.696,29.509 62.696,30.365 C62.695,31.221 61.998,31.917 61.143,31.917 L61.143,31.917 Z" fill="#231F20"></path>
                    <g>
                        <path d="M49.303,12.353 C49.682,12.518 49.858,12.959 49.694,13.339 C49.528,13.719 49.085,13.894 48.708,13.73 C48.308,13.557 47.899,13.408 47.487,13.267 C47.008,13.102 46.524,12.957 46.034,12.831 C45.71,12.748 45.384,12.679 45.055,12.612 C44.709,12.541 44.364,12.474 44.018,12.42 C40.69,11.902 37.348,12.122 34.745,12.569 C34.38,12.631 34.032,12.699 33.698,12.769 C33.35,12.842 33.023,12.917 32.714,12.995 C32.152,13.136 31.668,13.28 31.256,13.42 C30.713,13.605 30.297,13.782 30.074,13.927 C29.948,14.009 29.806,14.048 29.666,14.048 C29.421,14.048 29.181,13.928 29.037,13.707 C28.811,13.36 28.91,12.895 29.257,12.669 C29.536,12.487 30.065,12.261 30.757,12.028 C30.581,11.367 30.483,10.677 30.463,9.966 C16.225,12.964 5.689,23.391 5.689,35.761 C5.689,36.25 5.705,36.714 5.736,37.14 C5.783,37.785 5.516,38.414 5.018,38.827 L4.952,38.881 L4.9,38.924 C3.986,39.721 3.338,40.583 2.95,41.537 C2.528,42.624 2.372,43.768 2.498,44.905 C2.573,45.741 2.84,46.503 3.202,47.147 C3.062,46.336 3.071,45.494 3.243,44.676 C3.303,44.354 3.412,43.978 3.559,43.602 C3.854,42.847 4.577,42.345 5.387,42.331 L5.422,42.331 C6.219,42.331 6.942,42.805 7.258,43.538 C8.473,46.354 10.398,48.897 12.977,51.095 C13.308,51.376 13.538,51.758 13.632,52.182 C14.698,56.963 16.658,59.684 16.677,59.711 C16.866,59.97 16.991,60.27 17.039,60.588 C17.455,63.283 18.446,66.247 19.133,66.904 L26.864,66.904 C27.31,66.904 27.79,66.577 28.036,66.158 C27.601,65.093 26.87,63.097 26.767,61.495 C26.728,60.799 26.886,60.15 27.008,59.722 C27.045,59.593 27.116,59.487 27.175,59.371 C24.088,58.602 21.137,57.532 18.408,56.146 C18.039,55.958 17.891,55.506 18.079,55.137 C18.266,54.768 18.717,54.622 19.087,54.808 C22.199,56.388 25.617,57.55 29.203,58.295 C29.233,58.299 29.264,58.297 29.294,58.303 C32.404,58.878 35.625,59.17 38.866,59.17 C40.664,59.17 42.5,59.079 44.321,58.899 C44.339,58.897 44.356,58.898 44.374,58.896 C46.243,58.662 48.083,58.314 49.88,57.853 C50.278,57.754 50.691,57.991 50.794,58.393 C50.896,58.794 50.655,59.204 50.253,59.306 C48.968,59.635 47.657,59.888 46.333,60.106 C46.362,60.17 46.405,60.224 46.427,60.293 C47.37,63.303 48.947,66.39 49.788,66.903 L57.593,66.903 C57.923,66.903 58.208,66.714 58.349,66.438 C57.759,65.404 56.699,63.4 56.343,61.797 C55.823,59.453 57.462,56.422 57.796,55.838 C57.997,55.488 58.298,55.207 58.659,55.031 C63.559,52.651 67.331,49.313 69.563,45.378 C69.922,44.741 70.594,44.364 71.301,44.364 C71.455,44.364 71.61,44.382 71.764,44.419 L76.485,45.543 C76.585,45.567 76.686,45.579 76.784,45.579 C77.372,45.579 77.876,45.178 78.013,44.604 L80.495,34.211 C80.575,33.88 80.522,33.543 80.347,33.256 C80.169,32.967 79.89,32.764 79.56,32.686 L73.955,31.346 C72.34,30.968 71.191,29.948 70.814,28.549 C70.044,25.699 68.252,22.805 65.335,19.7 C64.796,19.126 64.644,18.29 64.944,17.564 C65.048,17.317 65.145,16.966 65.256,16.561 C65.533,15.551 65.916,14.168 66.869,12.729 C67.019,12.503 67.18,12.272 67.344,12.036 C67.631,11.621 68.106,10.939 68.344,10.462 C68.088,10.395 67.783,10.361 67.446,10.361 C64.841,10.361 61.323,12.202 60.046,13.469 C59.661,13.85 59.151,14.05 58.636,14.05 C58.306,14.05 57.972,13.968 57.667,13.799 C54.743,12.176 51.548,10.97 48.194,10.18 C48.165,10.748 48.092,11.305 47.962,11.842 C48.412,11.997 48.861,12.162 49.303,12.353 L49.303,12.353 Z"></path>
                        <path d="M80.023,30.742 L74.418,29.402 C73.992,29.302 73.006,29.003 72.742,28.029 C71.763,24.399 69.48,21.193 66.791,18.332 C67.254,17.217 67.385,15.572 68.537,13.835 C69.742,12.019 71.771,9.69 69.365,8.699 C68.797,8.465 68.144,8.362 67.445,8.362 C64.34,8.362 60.3,10.398 58.636,12.051 C55.45,10.285 51.882,8.951 48.066,8.109 C48.166,8.637 48.222,9.179 48.222,9.735 C48.222,9.886 48.202,10.032 48.193,10.181 C51.547,10.971 54.742,12.177 57.666,13.8 C57.971,13.969 58.305,14.051 58.635,14.051 C59.151,14.051 59.66,13.852 60.045,13.47 C61.322,12.202 64.84,10.362 67.445,10.362 C67.783,10.362 68.088,10.396 68.343,10.463 C68.105,10.94 67.63,11.622 67.343,12.037 C67.179,12.273 67.019,12.505 66.868,12.73 C65.915,14.169 65.532,15.552 65.255,16.562 C65.144,16.968 65.046,17.318 64.943,17.565 C64.642,18.292 64.795,19.127 65.334,19.701 C68.25,22.805 70.043,25.7 70.813,28.55 C71.19,29.949 72.338,30.969 73.954,31.347 L79.559,32.687 C79.889,32.766 80.168,32.968 80.346,33.257 C80.522,33.544 80.575,33.881 80.494,34.212 L78.012,44.605 C77.875,45.178 77.371,45.58 76.783,45.58 C76.685,45.58 76.584,45.567 76.484,45.544 L71.763,44.42 C71.609,44.383 71.454,44.365 71.3,44.365 C70.593,44.365 69.921,44.742 69.562,45.379 C67.33,49.315 63.558,52.652 58.658,55.032 C58.297,55.208 57.996,55.489 57.795,55.839 C57.461,56.423 55.822,59.454 56.342,61.798 C56.697,63.401 57.758,65.404 58.348,66.439 C58.207,66.715 57.922,66.904 57.592,66.904 L49.787,66.904 C48.945,66.39 47.369,63.303 46.426,60.294 C46.405,60.226 46.362,60.172 46.332,60.107 C47.656,59.889 48.967,59.636 50.252,59.307 C50.654,59.205 50.895,58.795 50.793,58.394 C50.689,57.992 50.277,57.755 49.879,57.854 C48.082,58.315 46.242,58.663 44.373,58.897 C44.355,58.899 44.338,58.898 44.32,58.9 C42.5,59.08 40.663,59.171 38.865,59.171 C35.624,59.171 32.404,58.879 29.293,58.304 C29.262,58.298 29.232,58.3 29.202,58.296 C25.616,57.551 22.198,56.389 19.086,54.809 C18.716,54.623 18.264,54.769 18.078,55.138 C17.89,55.507 18.037,55.959 18.407,56.147 C21.136,57.533 24.087,58.603 27.174,59.372 C27.115,59.487 27.044,59.594 27.007,59.723 C26.885,60.152 26.727,60.8 26.766,61.496 C26.87,63.099 27.6,65.094 28.035,66.159 C27.789,66.578 27.309,66.905 26.863,66.905 L19.132,66.905 C18.445,66.248 17.454,63.284 17.038,60.589 C16.989,60.272 16.865,59.971 16.676,59.712 C16.657,59.685 14.697,56.964 13.631,52.183 C13.536,51.759 13.306,51.377 12.976,51.096 C10.396,48.899 8.472,46.356 7.257,43.539 C6.94,42.806 6.218,42.332 5.421,42.332 L5.386,42.332 C4.575,42.347 3.853,42.849 3.558,43.603 C3.411,43.979 3.302,44.355 3.242,44.677 C3.07,45.494 3.061,46.337 3.201,47.148 C2.84,46.503 2.573,45.742 2.497,44.906 C2.371,43.769 2.527,42.625 2.949,41.538 C3.338,40.584 3.985,39.722 4.899,38.925 L4.951,38.882 L5.017,38.828 C5.515,38.415 5.783,37.786 5.735,37.141 C5.704,36.715 5.688,36.251 5.688,35.762 C5.688,23.392 16.224,12.965 30.462,9.967 C30.46,9.889 30.446,9.815 30.446,9.736 C30.446,9.105 30.515,8.489 30.64,7.895 C15.183,10.914 3.687,22.243 3.687,35.763 C3.687,36.274 3.703,36.785 3.74,37.288 C3.7,37.321 3.656,37.356 3.614,37.392 C2.691,38.196 1.708,39.282 1.095,40.783 C0.549,42.189 0.344,43.658 0.507,45.128 C0.773,48.091 2.887,50.568 4.831,51.173 C5.48,51.407 6.049,51.496 6.518,51.496 C7.446,51.496 7.986,51.149 7.992,50.897 C8.05,50.408 6.993,49.977 6.189,48.971 C5.338,48.029 4.896,46.514 5.196,45.09 C5.245,44.829 5.323,44.574 5.418,44.332 C6.788,47.507 8.935,50.282 11.677,52.618 C12.847,57.862 15.06,60.891 15.06,60.891 C15.06,60.891 16.288,68.905 18.918,68.905 L26.862,68.905 C28.434,68.905 29.915,67.628 30.164,66.053 C30.164,66.053 28.882,63.235 28.761,61.366 C28.742,61.033 28.82,60.657 28.93,60.27 C32.087,60.854 35.413,61.17 38.866,61.17 C40.79,61.17 42.674,61.071 44.518,60.89 C44.518,60.89 47.02,68.904 49.649,68.904 L57.592,68.904 C59.164,68.904 60.442,67.627 60.442,66.052 C60.442,66.052 58.71,63.234 58.296,61.365 C57.917,59.657 59.532,56.831 59.532,56.831 C64.692,54.326 68.796,50.785 71.302,46.365 L76.023,47.489 C76.279,47.55 76.535,47.58 76.785,47.58 C78.264,47.58 79.601,46.57 79.959,45.069 L82.441,34.677 C82.863,32.929 81.781,31.162 80.023,30.742 L80.023,30.742 Z" fill="#000000"></path>
                        <path d="M39.336,3.209 C42.178,3.209 44.59,5.06 45.445,7.618 C45.781,7.67 46.119,7.717 46.451,7.776 C45.59,4.65 42.73,2.345 39.335,2.345 C36,2.345 33.177,4.567 32.261,7.608 C32.601,7.556 32.941,7.504 33.284,7.46 C34.185,4.985 36.554,3.209 39.336,3.209 L39.336,3.209 Z"></path>
                        <path d="M32.195,11.603 C32.493,11.526 32.802,11.45 33.133,11.377 C32.98,10.827 32.892,10.251 32.892,9.653 C32.892,9.614 32.897,9.575 32.898,9.536 C32.581,9.582 32.264,9.629 31.949,9.682 C31.949,9.699 31.947,9.716 31.947,9.733 C31.946,10.381 32.038,11.005 32.195,11.603 L32.195,11.603 Z"></path>
                        <path d="M45.586,11.191 C45.9,11.259 46.213,11.33 46.524,11.412 C46.641,10.911 46.706,10.393 46.715,9.86 C46.404,9.799 46.092,9.745 45.777,9.691 C45.773,10.208 45.705,10.709 45.586,11.191 L45.586,11.191 Z"></path>
                        <path d="M33.905,9.396 C33.567,9.436 33.233,9.488 32.898,9.537 C32.898,9.576 32.892,9.614 32.892,9.654 C32.892,10.252 32.98,10.828 33.133,11.378 C33.446,11.309 33.773,11.242 34.113,11.178 C33.971,10.694 33.892,10.183 33.892,9.654 C33.892,9.567 33.9,9.482 33.905,9.396 L33.905,9.396 Z" fill="#000000"></path>
                        <path d="M39.336,4.209 C41.549,4.209 43.455,5.539 44.305,7.439 C44.69,7.488 45.065,7.56 45.446,7.618 C44.591,5.06 42.178,3.209 39.337,3.209 C36.555,3.209 34.186,4.985 33.286,7.46 C33.661,7.411 34.04,7.372 34.42,7.333 C35.291,5.49 37.165,4.209 39.336,4.209 L39.336,4.209 Z" fill="#000000"></path>
                        <path d="M44.773,9.537 C44.775,9.576 44.779,9.614 44.779,9.654 C44.779,10.115 44.717,10.561 44.607,10.989 C44.935,11.045 45.259,11.121 45.586,11.191 C45.705,10.709 45.774,10.208 45.777,9.691 C45.445,9.634 45.109,9.585 44.773,9.537 L44.773,9.537 Z" fill="#000000"></path>
                        <path d="M34.418,7.333 C34.039,7.372 33.659,7.411 33.284,7.46 C33.047,8.111 32.91,8.808 32.897,9.537 C33.232,9.488 33.566,9.436 33.904,9.396 C33.939,8.661 34.119,7.964 34.418,7.333 L34.418,7.333 Z" fill="#000000"></path>
                        <path d="M44.773,9.537 C45.109,9.585 45.445,9.634 45.777,9.69 C45.777,9.678 45.779,9.666 45.779,9.653 C45.779,8.941 45.66,8.258 45.445,7.617 C45.064,7.558 44.689,7.487 44.304,7.438 C44.592,8.083 44.758,8.791 44.773,9.537 L44.773,9.537 Z" fill="#000000"></path>
                        <path d="M39.335,2.346 C42.731,2.346 45.59,4.651 46.451,7.777 C46.996,7.875 47.531,7.991 48.066,8.109 C47.3,3.982 43.679,0.846 39.335,0.846 C35.065,0.846 31.491,3.873 30.641,7.893 C31.177,7.788 31.717,7.693 32.262,7.608 C33.177,4.568 36,2.346 39.335,2.346 L39.335,2.346 Z" fill="#000000"></path>
                        <path d="M46.523,11.412 C46.212,11.33 45.9,11.259 45.585,11.191 C45.259,11.121 44.935,11.045 44.606,10.989 C40.824,10.344 37.019,10.635 34.111,11.178 C33.771,11.241 33.444,11.308 33.131,11.378 C32.8,11.451 32.491,11.527 32.193,11.604 C32.036,11.006 31.944,10.382 31.944,9.735 C31.944,9.718 31.946,9.701 31.946,9.684 C31.447,9.769 30.951,9.862 30.46,9.966 C30.481,10.677 30.578,11.367 30.754,12.028 C30.062,12.261 29.533,12.487 29.254,12.669 C28.906,12.895 28.808,13.359 29.034,13.707 C29.178,13.928 29.418,14.048 29.663,14.048 C29.803,14.048 29.945,14.009 30.071,13.927 C30.293,13.782 30.71,13.605 31.253,13.42 C31.665,13.279 32.149,13.135 32.711,12.995 C33.02,12.917 33.348,12.842 33.695,12.769 C34.029,12.699 34.377,12.632 34.742,12.569 C37.344,12.122 40.687,11.902 44.015,12.42 C44.361,12.474 44.706,12.541 45.052,12.612 C45.38,12.679 45.706,12.748 46.031,12.831 C46.521,12.956 47.006,13.102 47.484,13.267 C47.896,13.409 48.304,13.557 48.705,13.73 C49.082,13.894 49.525,13.72 49.691,13.339 C49.855,12.959 49.679,12.517 49.3,12.353 C48.859,12.162 48.409,11.998 47.958,11.843 C48.089,11.306 48.161,10.75 48.19,10.181 C47.702,10.066 47.21,9.957 46.711,9.86 C46.705,10.393 46.641,10.911 46.523,11.412 L46.523,11.412 Z" fill="#000000"></path>
                        <path d="M30.462,9.965 C30.953,9.861 31.449,9.769 31.948,9.683 C31.953,8.962 32.062,8.267 32.26,7.608 C31.715,7.692 31.175,7.788 30.639,7.893 C30.513,8.487 30.445,9.103 30.445,9.734 C30.446,9.813 30.46,9.888 30.462,9.965 L30.462,9.965 Z" fill="#000000"></path>
                        <path d="M46.723,9.734 C46.723,9.776 46.717,9.817 46.715,9.859 C47.213,9.956 47.705,10.065 48.194,10.18 C48.204,10.031 48.223,9.885 48.223,9.734 C48.223,9.178 48.166,8.636 48.067,8.108 C47.532,7.99 46.997,7.874 46.452,7.776 C46.623,8.401 46.723,9.056 46.723,9.734 L46.723,9.734 Z" fill="#000000"></path>
                    </g>
                </g>
            </g>
        </g>
    </g>
</svg>
